svgs/sharp-solid/square-arrow-down-right.svg

<svg xmlns="http://www.w3.org/2000/svg" viewBox="0 0 448 512"><!--! Font Awesome Pro 6.6.0 by @fontawesome - https://fontawesome.com License - https://fontawesome.com/license (Commercial License) Copyright 2024 Fonticons, Inc. --><path d="M0 480l448 0 0-448L0 32 0 480zM312 368l-152 0-24 0 0-48 24 0 94.1 0L119 185l-17-17L136 134.1l17 17 135 135L288 184l0-24 48 0 0 24 0 160 0 24-24 0z"/></svg>

<svg xmlns="http://www.w3.org/2000/svg" viewBox="0 0 448 512"><!--! Font Awesome Pro 6.4.0 by @fontawesome - https://fontawesome.com License - https://fontawesome.com/license (Commercial License) Copyright 2023 Fonticons, Inc. --><path d="M0 480H448V32H0V480zM312 368H160 136V320h24 94.1L119 185l-17-17L136 134.1l17 17 135 135V184 160h48v24V344v24H312z"/></svg>
